tag/Light/Baidu.svg

<svg width="108" height="32" viewBox="0 0 108 32" fill="none" xmlns="http://www.w3.org/2000/svg">
<path d="M0 16C0 10.3995 0 7.59921 1.08993 5.46009C2.04867 3.57847 3.57847 2.04867 5.46009 1.08993C7.59921 0 10.3995 0 16 0H91.2769C96.8775 0 99.6777 0 101.817 1.08993C103.698 2.04867 105.228 3.57847 106.187 5.46009C107.277 7.59921 107.277 10.3995 107.277 16V16C107.277 21.6005 107.277 24.4008 106.187 26.5399C105.228 28.4215 103.698 29.9513 101.817 30.9101C99.6777 32 96.8775 32 91.2769 32H16C10.3995 32 7.59921 32 5.46009 30.9101C3.57847 29.9513 2.04867 28.4215 1.08993 26.5399C0 24.4008 0 21.6005 0 16V16Z" fill="#272727"/>
<path fill-rule="evenodd" clip-rule="evenodd" d="M20.836 10.2363C19.2305 10.2363 17.9289 11.5378 17.9289 13.1434C17.9289 14.749 19.2305 16.0505 20.836 16.0505C22.4416 16.0505 23.7432 14.749 23.7432 13.1434C23.7432 11.5378 22.4416 10.2363 20.836 10.2363ZM15.6926 13.1434C15.6926 10.3028 17.9954 8 20.836 8C23.6766 8 25.9794 10.3028 25.9794 13.1434C25.9794 15.984 23.6766 18.2868 20.836 18.2868C17.9954 18.2868 15.6926 15.984 15.6926 13.1434Z" fill="url(#paint0_linear_434_129)"/>
<path fill-rule="evenodd" clip-rule="evenodd" d="M17.199 16.7813C16.0637 15.646 14.223 15.646 13.0877 16.7813C11.9524 17.9166 11.9524 19.7573 13.0877 20.8926C14.223 22.028 16.0637 22.028 17.199 20.8926C18.3344 19.7573 18.3344 17.9166 17.199 16.7813ZM18.7803 15.2001C16.7717 13.1914 13.5151 13.1914 11.5065 15.2001C9.49785 17.2087 9.49785 20.4653 11.5065 22.4739C13.5151 24.4825 16.7717 24.4825 18.7803 22.4739C18.7809 22.4733 18.7815 22.4727 18.7821 22.4721L24.4729 16.7813C25.6082 15.646 27.4489 15.646 28.5842 16.7813C29.7195 17.9166 29.7195 19.7573 28.5842 20.8926C27.4489 22.028 25.6082 22.028 24.4729 20.8926C24.0363 20.456 23.3283 20.456 22.8916 20.8926C22.455 21.3293 22.455 22.0373 22.8916 22.4739C24.9003 24.4825 28.1569 24.4825 30.1655 22.4739C32.1741 20.4653 32.1741 17.2087 30.1655 15.2001C28.1569 13.1914 24.9003 13.1914 22.8916 15.2001L20.836 17.2557L18.782 15.2017C18.7814 15.2012 18.7809 15.2006 18.7803 15.2001Z" fill="url(#paint1_linear_434_129)"/>
<path fill-rule="evenodd" clip-rule="evenodd" d="M16.8108 12.0251C17.4283 12.0251 17.9289 12.5257 17.9289 13.1433C17.9289 14.7488 19.2305 16.0504 20.836 16.0504C22.4416 16.0504 23.7432 14.7488 23.7432 13.1433C23.7432 12.5257 24.2438 12.0251 24.8613 12.0251C25.4788 12.0251 25.9794 12.5257 25.9794 13.1433C25.9794 15.9839 23.6766 18.2867 20.836 18.2867C17.9954 18.2867 15.6926 15.9839 15.6926 13.1433C15.6926 12.5257 16.1932 12.0251 16.8108 12.0251Z" fill="url(#paint2_linear_434_129)"/>
<path fill-rule="evenodd" clip-rule="evenodd" d="M92.0606 15.7815C92.3337 15.8088 92.7434 15.8361 93.3442 15.8361C93.8631 15.8634 94.1089 15.6176 94.0816 15.0987V14.6071H89.925L91.421 15.8545L90.6165 16.8194L88.9383 15.4203L89.6162 14.6071H87.6089C87.4177 15.6996 86.8715 16.6555 85.943 17.4202H95.8295V20.7794H96.7854V21.9265H84.0039V20.7794H85.0144V17.9118C84.6594 17.4476 84.6593 17.4474 84.2497 16.7647C85.2329 16.1639 85.8883 15.5084 86.1068 14.5798H84.0585V13.4328H86.2161C86.2161 13.3679 86.2332 13.286 86.2538 13.1869C86.2593 13.1608 86.265 13.1335 86.2707 13.105V10.292H89.7938V9.5H91.4051V10.292H95.5564V13.4601H97.277V14.6071H95.5564V15.1534C95.5837 16.3004 95.0375 16.9013 93.945 16.9286H92.3337C92.3079 16.6708 92.2092 16.3158 92.0834 15.8634L92.0606 15.7815ZM94.4093 18.6492H92.7434V20.8067H94.4093V18.6492ZM91.4598 18.6492H89.7938V20.8067H91.4598V18.6492ZM88.4829 18.6492H86.8715V20.8067H88.4829V18.6492ZM94.027 13.4601V11.4664H87.6909V12.8046C87.6909 13.0231 87.6635 13.2416 87.6362 13.4601H90.0826L89.0479 12.5973L89.8524 11.6324L91.5306 13.0316L91.1733 13.4601H94.027Z" fill="white"/>
<path d="M68.4367 11.5756H57.7035V15.3719C57.7581 18.5126 57.2938 20.834 56.3106 22.3361C56.2693 22.3031 56.2229 22.2675 56.1723 22.2286C56.0558 22.1392 55.9167 22.0324 55.7644 21.8992C55.464 21.6807 55.2455 21.5168 55.1089 21.4076C55.6005 20.5336 55.9556 19.687 56.0921 18.8677C56.2287 18.0756 56.3106 16.874 56.3106 15.2626V10.3467H61.3085V9.7185H63.0291V10.3467H68.4367V11.5756Z" fill="white"/>
<path fill-rule="evenodd" clip-rule="evenodd" d="M41.672 11.4664V10.1554H54.2623V11.4937H49.1006L48.4997 12.9138H53.2245V22.1449H42.7098V12.8865H46.8338L47.4346 11.4664H41.672ZM44.2119 14.2794V16.9012H51.7224V14.2794H44.2119ZM44.2119 18.2121V20.8886H51.7224V18.2121H44.2119Z" fill="white"/>
<path fill-rule="evenodd" clip-rule="evenodd" d="M66.1152 12.7773V12.1765H64.7224V12.7773H61.1173V12.1765H59.7245V12.7773H57.84V14.0063H59.7245V16.0546H66.1152V14.0063H68.2728V12.7773H66.1152ZM64.7224 15.0441H61.1173V14.0063H64.7224V15.0441Z" fill="white"/>
<path fill-rule="evenodd" clip-rule="evenodd" d="M64.4493 20.2332C65.3779 19.687 66.2245 18.9769 66.9892 18.1303V16.9013H58.9325V18.0483C59.5257 18.7899 60.4098 19.4419 61.2 20.0248C61.2829 20.0859 61.3647 20.1463 61.4451 20.2059C60.298 20.5336 58.9325 20.8067 57.3485 21.0252C57.5669 21.4622 57.7854 21.8992 58.0039 22.3088C60.0249 21.9538 61.6636 21.4622 62.8653 20.8614C64.0123 21.4076 65.6783 21.8446 67.8358 22.1996C67.9173 22.0134 67.9988 21.8222 68.0823 21.6261C68.1949 21.362 68.3113 21.0889 68.4367 20.8067C66.6342 20.6975 65.2959 20.5063 64.4493 20.2332ZM60.8169 18.0756H65.2413C64.6405 18.6219 63.8758 19.1408 62.9199 19.6324C62.1006 19.2227 61.3905 18.7038 60.8169 18.0756Z" fill="white"/>
<path d="M70.048 22.5V10.1282H81.9556V20.1513C81.9829 21.4349 81.4094 22.145 80.1804 22.145C79.8796 22.1626 79.3497 22.1574 78.7539 22.1515H78.7536C78.4297 22.1483 78.0862 22.145 77.7497 22.145C77.7497 21.4212 77.7429 21.3939 77.7395 21.3803L77.7392 21.3794C77.736 21.3663 77.7363 21.3523 77.7497 20.6975C78.0299 20.715 78.3775 20.71 78.7853 20.7042C79.0134 20.701 79.2604 20.6975 79.5249 20.6975C80.2077 20.7521 80.5354 20.5063 80.5081 19.8782V11.521H71.5501V22.5H70.048Z" fill="white"/>
<path fill-rule="evenodd" clip-rule="evenodd" d="M78.569 19.5231H80.1257C79.9668 19.1876 79.8193 18.8549 79.673 18.525C79.3669 17.8347 79.0663 17.1569 78.6782 16.4916C78.9968 15.8067 79.2225 15.1403 79.4474 14.4763C79.6081 14.0018 79.7684 13.5285 79.9619 13.0504H78.8694C78.604 13.6834 78.4607 13.9958 78.234 14.4898L78.2337 14.4905C78.1573 14.6571 78.0714 14.8443 77.9682 15.0714L76.6845 12.9958H75.2644C75.072 13.3272 74.9298 13.5665 74.7985 13.7875C74.5944 14.131 74.4165 14.4304 74.1173 14.9622L73.0249 13.0777H71.9325C72.2024 13.6177 72.4355 14.1798 72.6777 14.7642C72.901 15.3029 73.1321 15.8606 73.4072 16.437C73.0795 17.0651 72.6152 17.9118 72.0144 18.9769C71.9598 19.0588 71.9325 19.1134 71.9325 19.1681L71.7686 19.5504H73.2434C73.4876 19.0996 73.7059 18.6358 73.8718 18.2836C73.9471 18.1237 74.0116 17.9867 74.0627 17.8845L74.8274 19.5504H77.1488L78.0228 17.9937L78.569 19.5231ZM76.5207 17.9118C76.4621 18.0215 76.4075 18.1235 76.3568 18.2181L76.3567 18.2183C76.2182 18.4767 76.109 18.6804 76.0291 18.8403L74.7455 16.3004C75.1825 15.5357 75.5648 14.7437 75.8925 13.9244C76.1216 14.354 76.3508 14.7911 76.5838 15.2357C76.7952 15.639 77.0099 16.0486 77.2308 16.4643C77.1031 16.7963 76.8799 17.2238 76.5835 17.7915L76.5207 17.9118Z" fill="white"/>
<defs>
<linearGradient id="paint0_linear_434_129" x1="16.9325" y1="13.0414" x2="24.983" y2="13.0414" gradientUnits="userSpaceOnUse">
<stop stop-color="#6CE0FF"/>
<stop offset="1" stop-color="#07A8FF"/>
</linearGradient>
<linearGradient id="paint1_linear_434_129" x1="12.4553" y1="16.0046" x2="18.1478" y2="21.6972" gradientUnits="userSpaceOnUse">
<stop stop-color="#6CE0FF"/>
<stop offset="1" stop-color="#07A8FF"/>
</linearGradient>
<linearGradient id="paint2_linear_434_129" x1="16.9325" y1="13.0216" x2="24.983" y2="13.0216" gradientUnits="userSpaceOnUse">
<stop stop-color="#FF7B83"/>
<stop offset="1" stop-color="#FF466B"/>
</linearGradient>
</defs>
</svg>

<svg xmlns="http://www.w3.org/2000/svg" width="108" height="32" fill="none" viewBox="0 0 108 32" preserveAspectRatio="xMinYMin meet">
    <g class="Baidu">
        <path class="box" fill="#272727" d="M0 16c0-5.6 0-8.4 1.09-10.54a10 10 0 0 1 4.37-4.37C7.6 0 10.4 0 16 0h75.277c5.6 0 8.4 0 10.54 1.09a10.004 10.004 0 0 1 4.37 4.37c1.09 2.14 1.09 4.94 1.09 10.54 0 5.6 0 8.4-1.09 10.54a10.005 10.005 0 0 1-4.37 4.37C99.677 32 96.877 32 91.277 32H16c-5.6 0-8.4 0-10.54-1.09a10 10 0 0 1-4.37-4.37C0 24.4 0 21.6 0 16Z"/>
        <g class="icon">
            <g class="Group 3">
                <path fill="url(#a)" fill-rule="evenodd" d="M20.836 10.236a2.907 2.907 0 1 0 0 5.815 2.907 2.907 0 0 0 0-5.815Zm-5.143 2.907a5.143 5.143 0 1 1 10.286 0 5.143 5.143 0 0 1-10.286 0Z" class="Ellipse 14 (Stroke)" clip-rule="evenodd"/>
                <path fill="url(#b)" fill-rule="evenodd" d="M17.199 16.781a2.907 2.907 0 1 0-4.111 4.112 2.907 2.907 0 0 0 4.111-4.112ZM18.78 15.2a5.143 5.143 0 1 0 .002 7.272l5.69-5.69a2.907 2.907 0 1 1 0 4.11 1.118 1.118 0 1 0-1.58 1.582 5.143 5.143 0 1 0 0-7.274l-2.056 2.056-2.054-2.054-.002-.002Z" class="Vector (Stroke)" clip-rule="evenodd"/>
                <path fill="url(#c)" fill-rule="evenodd" d="M16.81 12.025c.618 0 1.119.5 1.119 1.118a2.907 2.907 0 0 0 5.814 0 1.118 1.118 0 0 1 2.236 0 5.143 5.143 0 1 1-10.286 0c0-.617.5-1.118 1.118-1.118Z" class="Ellipse 15 (Stroke)" clip-rule="evenodd"/>
            </g>
        </g>
        <g class="name">
            <path fill="#fff" fill-rule="evenodd" d="M92.06 15.781c.274.028.683.055 1.284.055.52.027.765-.218.738-.737v-.492h-4.157l1.496 1.248-.805.964-1.678-1.399.678-.813H87.61c-.191 1.093-.737 2.049-1.666 2.813h9.886v3.36h.956v1.146H84.004V20.78h1.01v-2.867c-.355-.464-.355-.465-.764-1.147.983-.601 1.638-1.257 1.857-2.185h-2.049v-1.147h2.158c0-.065.017-.147.038-.246l.017-.082v-2.813h3.523V9.5h1.611v.792h4.151v3.168h1.72v1.147h-1.72v.546c.028 1.147-.519 1.748-1.611 1.776h-1.611c-.026-.258-.125-.613-.25-1.066l-.023-.082Zm2.35 2.868h-1.667v2.158h1.666v-2.158Zm-2.95 0h-1.666v2.158h1.666v-2.158Zm-2.977 0H86.87v2.158h1.612v-2.158Zm5.544-5.189v-1.994H87.69v1.339c0 .218-.028.437-.055.655h2.447l-1.035-.863.804-.965 1.678 1.4-.357.428h2.854Z" clip-rule="evenodd"/>
            <path fill="#fff" d="M68.437 11.576H57.703v3.796c.055 3.14-.41 5.462-1.392 6.964a10.332 10.332 0 0 0-.139-.107 7.86 7.86 0 0 1-.408-.33c-.3-.218-.519-.382-.655-.491.491-.874.846-1.721.983-2.54.137-.792.219-1.994.219-3.605v-4.916h4.998v-.628h1.72v.628h5.408v1.229Z"/>
            <path fill="#fff" fill-rule="evenodd" d="M41.672 11.466v-1.31h12.59v1.338H49.1l-.6 1.42h4.724v9.23H42.71v-9.257h4.124l.6-1.42h-5.762Zm2.54 2.813v2.622h7.51V14.28h-7.51Zm0 3.933v2.677h7.51v-2.677h-7.51ZM66.115 12.777v-.6h-1.393v.6h-3.605v-.6h-1.393v.6H57.84v1.23h1.884v2.048h6.391v-2.049h2.158v-1.229h-2.158Zm-1.393 2.267h-3.605v-1.038h3.605v1.038ZM64.45 20.233a10.85 10.85 0 0 0 2.54-2.103v-1.229h-8.058v1.147c.594.742 1.478 1.394 2.268 1.977l.245.18c-1.147.329-2.513.602-4.097.82.219.437.437.874.656 1.284 2.02-.355 3.66-.847 4.861-1.448 1.147.547 2.813.984 4.97 1.339.082-.187.164-.378.247-.574.113-.264.23-.537.355-.82-1.803-.108-3.141-.3-3.988-.573Zm-3.633-2.157h4.424c-.6.546-1.365 1.065-2.321 1.556-.82-.41-1.53-.928-2.103-1.556Z" clip-rule="evenodd"/>
            <path fill="#fff" d="M70.048 22.5V10.128h11.907v10.023c.028 1.284-.546 1.994-1.775 1.994-.3.018-.83.012-1.426.006-.324-.003-.668-.006-1.004-.006 0-.724-.007-.751-.01-.765-.004-.014-.004-.028.01-.682.28.017.627.012 1.035.006.228-.003.475-.006.74-.006.683.054 1.01-.192.983-.82v-8.357H71.55V22.5h-1.502Z"/>
            <path fill="#fff" fill-rule="evenodd" d="M78.569 19.523h1.557c-.16-.335-.307-.668-.453-.998-.306-.69-.607-1.368-.995-2.033.319-.685.544-1.352.77-2.016.16-.474.32-.948.514-1.426h-1.093c-.265.633-.408.946-.635 1.44l-.266.581-1.284-2.075h-1.42c-.192.331-.334.57-.466.791-.204.344-.382.643-.68 1.175l-1.093-1.884h-1.093c.27.54.503 1.102.746 1.686.223.539.454 1.097.73 1.673a93.414 93.414 0 0 1-1.394 2.54c-.054.082-.082.136-.082.191l-.163.382h1.474c.245-.45.463-.914.629-1.266l.19-.4.765 1.666h2.322l.874-1.556.546 1.53Zm-2.048-1.611-.164.306c-.139.259-.248.462-.328.622l-1.284-2.54a19.03 19.03 0 0 0 1.147-2.376c.23.43.459.867.692 1.312.211.403.426.813.647 1.228-.128.332-.351.76-.648 1.328l-.062.12Z" clip-rule="evenodd"/>
        </g>
    </g>
    <defs>
        <linearGradient id="a" x1="16.932" x2="24.983" y1="13.041" y2="13.041" class="paint0_linear_0" gradientUnits="userSpaceOnUse">
            <stop stop-color="#6CE0FF"/>
            <stop offset="1" stop-color="#07A8FF"/>
        </linearGradient>
        <linearGradient id="b" x1="12.455" x2="18.148" y1="16.005" y2="21.697" class="paint1_linear_0" gradientUnits="userSpaceOnUse">
            <stop stop-color="#6CE0FF"/>
            <stop offset="1" stop-color="#07A8FF"/>
        </linearGradient>
        <linearGradient id="c" x1="16.932" x2="24.983" y1="13.022" y2="13.022" class="paint2_linear_0" gradientUnits="userSpaceOnUse">
            <stop stop-color="#FF7B83"/>
            <stop offset="1" stop-color="#FF466B"/>
        </linearGradient>
    </defs>
</svg>
